O0001
(This Post Processor is distributed on an "AS IS" BASIS, )
(WITHOUT WARRANTIES OR CONDITIONS OF ANY KIND, either express or implied. )
N1 G21
N2 (16.0mm JOBBER DRILL)
N3 G91 G28 X0 Y0 Z0
N4 T15 M06
N5 S5942 M03
N6 G90 G00 X33.861 Y27.526
N7 G43 Z35. H15 M08
N8 G82 G98 R13. Z7. P1000 F799.983
N9 G80 Z35. M09
N10 G91 G28 Z0
N11 (6MM CRB 2FL 19 LOC)
N12 T01 M06
N13 S4000 M03
N14 G90 G00 X33.861 Y27.526
N15 G43 Z12.5 H01 M08
N16 G01 Z7.25 F125.
N17 G17 X36.18 F250.
N18 G03 I-2.319 J0 F500.
N19 G01 X38.58
N20 G03 I-4.719 J0
N21 G01 X40.98
N22 G03 I-7.119 J0
N23 G01 X43.38
N24 G03 I-9.519 J0
N25 I-9.519 J0
N26 G01 X33.861
N27 G00 Z12.5
N28 Z9.75
N29 G01 Z7. F125.
N30 X36.18 F250.
N31 G03 I-2.319 J0 F500.
N32 G01 X38.58
N33 G03 I-4.719 J0
N34 G01 X40.98
N35 G03 I-7.119 J0
N36 G01 X43.38
N37 G03 I-9.519 J0
N38 I-9.519 J0
N39 G01 X33.861
N40 G00 Z12.5
N41 Z35.
N42 Z13.
N43 G01 Z7. F125.
N44 G41 D21 X26.649 Y30.605 F375.
N45 X24.311 Y28.538
N46 G03 X24.11 Y28.126 I.397 J-.45
N47 X24.091 Y27.526 I9.751 J-.6 F500.
N48 I9.769 J0
N49 X24.11 Y26.926 I9.769 J0
N50 X24.311 Y26.514 I.599 J.037
N51 G40 G01 X26.649 Y24.447
N52 G00 Z13.
N53 Z35.
N54 X33.453 Y55.521
N55 Z13.
N56 G01 Z7. F125.
N57 G41 D21 X69.905 Y55.521 F500.
N58 Y-3.
N59 X-3.
N60 Y55.521
N61 X33.453
N62 G00 Z13.
N63 Z10.
N64 G01 Z4.667 F125.
N65 D21 X69.905 Y55.521 F500.
N66 Y-3.
N67 X-3.
N68 Y55.521
N69 X33.453
N70 G00 Z13.
N71 Z7.667
N72 G01 Z2.333 F125.
N73 D21 X69.905 Y55.521 F500.
N74 Y-3.
N75 X-3.
N76 Y55.521
N77 X33.453
N78 G00 Z13.
N79 Z5.333
N80 G01 Z0 F125.
N81 D21 X69.905 Y55.521 F500.
N82 Y-3.
N83 X-3.
N84 Y55.521
N85 X33.453
N86 G00 Z13.
N87 Z35. M09
N88 G40 X33.453 Y55.521
N89 G91 G28 Z0
N90 G28 X0 Y0
N91 M30
()
